; generated by SuperSlicer 2.2.52 on 2020-08-15 at 19:42:07 UTC

; 

; external perimeters extrusion width = 0.45mm
; perimeters extrusion width = 0.45mm
; infill extrusion width = 0.45mm
; solid infill extrusion width = 0.45mm
; top infill extrusion width = 0.40mm
; support material extrusion width = 0.35mm
; first layer extrusion width = 0.42mm

; object:{"name":"2004947D-HOUSING, CAP-exact_bottom","id":"2004947D-HOUSING, CAP-exact_bottom.stl id:0 copy 0","object_center":[111.700770,103.603000,0.000000],"boundingbox_center":[111.700770,103.603000,5.969000],"boundingbox_size":[21.894800,21.844000,11.938000]}
; object:{"name":"2004947D-HOUSING, CAP-exact_top","id":"2004947D-HOUSING, CAP-exact_top.stl id:1 copy 0","object_center":[111.700770,134.430891,0.000000],"boundingbox_center":[111.700770,134.430891,5.118100],"boundingbox_size":[21.894800,21.844000,10.236200]}
; object:{"name":"2004948B-exact-SHAFT_bottom","id":"2004948B-exact-SHAFT_bottom.stl id:2 copy 0","object_center":[141.173289,119.162123,0.000000],"boundingbox_center":[141.173289,119.162123,13.424100],"boundingbox_size":[19.049999,19.049999,26.848200]}
; object:{"name":"2004948B-exact-SHAFT_top","id":"2004948B-exact-SHAFT_top.stl id:3 copy 0","object_center":[108.826711,74.172109,0.000000],"boundingbox_center":[108.826711,74.172109,1.092200],"boundingbox_size":[19.049999,19.049999,2.184400]}
; object:{"name":"Housing, Switch Mount","id":"Housing, Switch Mount.stl id:4 copy 0","object_center":[138.553109,76.855815,0.000000],"boundingbox_center":[138.553109,76.855815,13.593409],"boundingbox_size":[22.402800,22.402800,27.186817]}

M73 P0 R87
M73 Q0 S88
M107
M862.3 P "MK3S" ; printer model check
M862.1 P0.4 ; nozzle diameter check
M115 U3.8.1 ; tell printer latest fw version
G90 ; use absolute coordinates
M83 ; extruder relative mode
M104 S240 ; set extruder temp
M140 S85 ; set bed temp
M190 S85 ; wait for bed temp
M109 S240 ; wait for extruder temp
G28 W ; home all without mesh bed level
G80 ; mesh bed leveling
G1 Y-3.0 F1000.0 ; go outside print area
G92 E0.0
G1 X60.0 E9.0 F1000.0 ; intro line
M73 Q0 S88
M73 P0 R87
G1 X100.0 E12.5 F1000.0 ; intro line
G92 E0.0
M221 S95
G21 ; set units to millimeters
G90 ; use absolute coordinates
M83 ; use relative distances for extrusion
M900 K45 ; Filament gcode
;BEFORE_LAYER_CHANGE
G92 E0.0
;0.2


G1 E-1.40000 F2100.00000
G1 Z0.200 F10800.000
;AFTER_LAYER_CHANGE
;0.2
G1 Z0.800
G1 X97.613 Y64.652
G1 Z0.200
G1 E1.40000 F2100.00000
M204 S1000
G1 F1200.000
G1 X99.175 Y63.076 E0.06953
G1 X99.679 Y62.711 E0.01953
G1 X100.262 Y62.503 E0.01942
G1 X124.226 Y59.997 E0.75548
G1 X152.990 Y60.170 E0.90189
G1 X153.591 Y60.285 E0.01919
G1 X154.137 Y60.562 E0.01919
G1 X154.584 Y60.980 E0.01919
G1 X154.899 Y61.505 E0.01919
G1 X155.071 Y62.344 E0.02687
G1 X155.070 Y91.595 E0.91714
G1 X152.815 Y127.845 E1.13878
G1 X152.633 Y128.314 E0.01578
G1 X152.350 Y128.726 E0.01567
G1 X150.482 Y130.530 E0.08141
G1 X123.050 Y147.003 E1.00329
G1 X122.450 Y147.296 E0.02093
G1 X121.805 Y147.478 E0.02102
G1 X121.138 Y147.541 E0.02102
G1 X102.263 Y147.541 E0.59181
G1 X101.306 Y147.412 E0.03027
G1 X100.270 Y146.951 E0.03556
G1 X99.781 Y146.577 E0.01931
G1 X99.368 Y146.134 E0.01897
G1 X98.815 Y145.169 E0.03488
G1 X98.574 Y144.079 E0.03499
G1 X97.113 Y82.337 E1.93642
G1 X97.113 Y66.037 E0.51108
G1 X97.185 Y65.487 E0.01737
G1 X97.355 Y65.045 E0.01487
G1 X97.580 Y64.702 E0.01287
; printing object 2004947D-HOUSING, CAP-exact_bottom.stl id:0 copy 0
G1 F8640.000
G1 X99.175 Y63.076 E-0.52566
G1 X99.679 Y62.711 E-0.14382
G1 X100.262 Y62.503 E-0.14298
G1 X102.491 Y62.270 E-0.51754
G1 E-0.07000 F2100.00000
G1 Z0.800 F10800.000
G1 X115.472 Y107.318
G1 Z0.200
G1 E1.40000 F2100.00000
G1 F1200.000
G1 X115.472 Y102.436 E0.15307
G1 X115.087 Y101.892 E0.02089
G1 X114.717 Y101.500 E0.01689
G1 X114.717 Y107.941 E0.20196
G1 X114.412 Y108.206 E0.01268
G1 X113.963 Y108.514 E0.01706
G1 X113.963 Y100.927 E0.23789
G1 X113.613 Y100.735 E0.01251
G1 X113.209 Y100.564 E0.01377
G1 X113.209 Y108.877 E0.26066
G1 X112.727 Y109.025 E0.01581
G1 X112.455 Y109.082 E0.00871
G1 X112.455 Y100.359 E0.27349
G1 X112.029 Y100.303 E0.01347
G1 X111.701 Y100.291 E0.01030
G1 X111.701 Y109.150 E0.27779
G1 X111.322 Y109.138 E0.01189
G1 X110.947 Y109.090 E0.01186
G1 X110.947 Y100.351 E0.27401
G1 X110.854 Y100.366 E0.00293
G1 X110.192 Y100.545 E0.02150
G1 X110.192 Y108.896 E0.26183
G1 X109.737 Y108.706 E0.01546
G1 X109.438 Y108.544 E0.01066
G1 X109.438 Y100.897 E0.23976
G1 X109.128 Y101.094 E0.01152
G1 X108.684 Y101.453 E0.01790
G1 X108.684 Y107.988 E0.20490
G1 X108.264 Y107.549 E0.01906
G1 X107.930 Y107.086 E0.01789
G1 X107.930 Y102.051 E0.15788
G1 F8640.000
G1 X107.930 Y107.086 E-1.16270
G1 X108.264 Y107.549 E-0.13178
G1 X108.370 Y107.660 E-0.03553
G1 E-0.07000 F2100.00000
G1 Z0.400 F10800.000
G1 X117.825 Y97.831
G1 Z0.200
G1 E1.40000 F2100.00000
G1 F1200.000
G1 X118.021 Y98.121 E0.01096
G1 X118.311 Y98.401 E0.01263
G1 X118.657 Y98.606 E0.01261
G1 X118.980 Y98.715 E0.01068
G1 X119.261 Y98.756 E0.00890
G1 X119.590 Y98.751 E0.01033
G1 X119.928 Y98.679 E0.01084
G1 X120.292 Y98.516 E0.01250
G1 X120.562 Y98.317 E0.01052
G1 X120.760 Y98.113 E0.00890
G1 X120.951 Y97.831 E0.01068
G1 X121.099 Y97.463 E0.01243
G1 X121.157 Y97.129 E0.01064
G1 X121.157 Y96.845 E0.00890
G1 X121.099 Y96.511 E0.01064
G1 X120.951 Y96.143 E0.01243
G1 X120.760 Y95.861 E0.01068
G1 X120.562 Y95.658 E0.00890
G1 X120.292 Y95.458 E0.01052
G1 X119.928 Y95.296 E0.01250
G1 X119.590 Y95.223 E0.01084
G1 X119.261 Y95.218 E0.01033
G1 X118.973 Y95.261 E0.00912
G1 X118.604 Y95.395 E0.01231
G1 X118.307 Y95.577 E0.01092
G1 X118.021 Y95.853 E0.01248
G1 X117.825 Y96.143 E0.01096
G1 X117.677 Y96.511 E0.01243
G1 X117.619 Y96.845 E0.01064
G1 X117.619 Y97.129 E0.00890
G1 X117.677 Y97.463 E0.01064
G1 X117.803 Y97.775 E0.01055
G1 X118.152 Y97.634 F10800.000
G1 F1200.000
G1 X118.311 Y97.877 E0.00910
G1 X118.541 Y98.099 E0.01001
G1 X118.815 Y98.261 E0.00999
G1 X119.068 Y98.346 E0.00838
G1 X119.286 Y98.379 E0.00689
G1 X119.547 Y98.375 E0.00821
G1 X119.810 Y98.318 E0.00843
G1 X120.101 Y98.189 E0.00998
G1 X120.313 Y98.032 E0.00827
G1 X120.466 Y97.874 E0.00689
G1 X120.616 Y97.653 E0.00838
G1 X120.735 Y97.360 E0.00991
G1 X120.780 Y97.097 E0.00836
G1 X120.780 Y96.877 E0.00689
G1 X120.735 Y96.614 E0.00836
G1 X120.616 Y96.321 E0.00991
G1 X120.466 Y96.100 E0.00838
G1 X120.313 Y95.943 E0.00689
G1 X120.101 Y95.785 E0.00827
G1 X119.810 Y95.656 E0.00998
G1 X119.547 Y95.599 E0.00843
G1 X119.286 Y95.596 E0.00821
G1 X119.066 Y95.628 E0.00697
G1 X118.769 Y95.736 E0.00991
G1 X118.540 Y95.877 E0.00843
G1 X118.311 Y96.097 E0.00996
G1 X118.160 Y96.321 E0.00848
G1 X118.041 Y96.614 E0.00991
G1 X117.996 Y96.877 E0.00836
G1 X117.996 Y97.097 E0.00689
G1 X118.041 Y97.360 E0.00836
G1 X118.130 Y97.578 E0.00740
G1 X118.005 Y97.884 F10800.000
G1 F8640.000
G1 X118.311 Y97.877 E-0.08064
G1 X118.541 Y98.099 E-0.07373
G1 X118.815 Y98.261 E-0.07355
G1 X119.068 Y98.346 E-0.06170
G1 X119.286 Y98.379 E-0.05077
G1 X119.547 Y98.375 E-0.06043
G1 X119.810 Y98.318 E-0.06210
G1 X120.101 Y98.189 E-0.07347
G1 X120.313 Y98.032 E-0.06093
G1 X120.466 Y97.874 E-0.05076
G1 X120.616 Y97.653 E-0.06168
G1 X120.735 Y97.360 E-0.07300
G1 X120.780 Y97.097 E-0.06155
G1 X120.780 Y96.877 E-0.05077
G1 X120.735 Y96.614 E-0.06155
G1 X120.616 Y96.321 E-0.07300
G1 X120.466 Y96.100 E-0.06168
G1 X120.313 Y95.943 E-0.05076
G1 X120.101 Y95.785 E-0.06093
G1 X119.810 Y95.656 E-0.07347
G1 X119.584 Y95.607 E-0.05352
G1 E-0.07000 F2100.00000
G1 Z0.400 F10800.000
G1 X116.109 Y99.888
G1 Z0.200
G1 E1.40000 F2100.00000
G1 F1200.000
G1 X115.730 Y99.556 E0.01579
G1 X115.158 Y99.155 E0.02191
G1 X114.547 Y98.816 E0.02191
G1 X113.903 Y98.544 E0.02191
G1 X113.256 Y98.349 E0.02119
G1 X112.869 Y98.265 E0.01239
G1 X112.199 Y98.176 E0.02119
G1 X111.501 Y98.157 E0.02191
G1 X110.804 Y98.213 E0.02191
G1 X110.117 Y98.342 E0.02191
G1 X109.470 Y98.538 E0.02119
G1 X109.102 Y98.681 E0.01239
G1 X108.515 Y98.967 E0.02048
G1 X108.174 Y99.168 E0.01239
G1 X107.621 Y99.556 E0.02119
G1 X107.095 Y100.016 E0.02191
G1 X106.621 Y100.530 E0.02191
G1 X106.218 Y101.073 E0.02119
G1 X106.008 Y101.408 E0.01239
G1 X105.696 Y102.008 E0.02119
G1 X105.442 Y102.658 E0.02191
G1 X105.258 Y103.333 E0.02191
G1 X105.147 Y104.023 E0.02191
G1 X105.110 Y104.721 E0.02191
G1 X105.147 Y105.419 E0.02191
G1 X105.258 Y106.109 E0.02191
G1 X105.442 Y106.783 E0.02191
G1 X105.688 Y107.412 E0.02119
G1 X105.861 Y107.768 E0.01239
G1 X106.204 Y108.350 E0.02119
G1 X106.621 Y108.911 E0.02191
G1 X107.095 Y109.425 E0.02191
G1 X107.621 Y109.885 E0.02191
G1 X108.193 Y110.287 E0.02191
G1 X108.804 Y110.625 E0.02191
G1 X109.448 Y110.897 E0.02191
G1 X110.117 Y111.099 E0.02191
G1 X110.804 Y111.228 E0.02191
G1 X111.478 Y111.282 E0.02119
G1 X111.850 Y111.282 E0.01168
G1 X112.222 Y111.262 E0.01168
G1 X112.892 Y111.173 E0.02119
G1 X113.571 Y111.007 E0.02191
G1 X114.228 Y110.770 E0.02191
G1 X114.857 Y110.464 E0.02191
G1 X115.449 Y110.093 E0.02191
G1 X115.981 Y109.676 E0.02119
G1 X116.271 Y109.408 E0.01239
G1 X116.730 Y108.911 E0.02119
G1 X117.147 Y108.350 E0.02191
G1 X117.490 Y107.768 E0.02119
G1 X117.663 Y107.412 E0.01239
G1 X117.909 Y106.783 E0.02119
G1 X118.093 Y106.109 E0.02191
G1 X118.204 Y105.419 E0.02191
G1 X118.241 Y104.721 E0.02191
G1 X118.204 Y104.023 E0.02191
G1 X118.093 Y103.333 E0.02191
G1 X117.909 Y102.658 E0.02191
G1 X117.654 Y102.008 E0.02191
G1 X117.343 Y101.408 E0.02119
G1 X117.133 Y101.073 E0.01239
G1 X116.730 Y100.530 E0.02119
G1 X116.154 Y99.927 E0.02613
G1 X115.906 Y100.211 F10800.000
G1 F1200.000
G1 X115.497 Y99.853 E0.01704
G1 X114.958 Y99.475 E0.02065
G1 X114.382 Y99.155 E0.02065
G1 X113.775 Y98.899 E0.02065
G1 X113.161 Y98.714 E0.02009
G1 X112.804 Y98.637 E0.01145
G1 X112.169 Y98.552 E0.02009
G1 X111.511 Y98.535 E0.02065
G1 X110.854 Y98.587 E0.02065
G1 X110.207 Y98.709 E0.02065
G1 X109.593 Y98.894 E0.02009
G1 X109.253 Y99.027 E0.01145
G1 X108.693 Y99.300 E0.01953
G1 X108.378 Y99.485 E0.01145
G1 X107.854 Y99.853 E0.02009
G1 X107.358 Y100.287 E0.02065
G1 X106.911 Y100.771 E0.02065
G1 X106.529 Y101.285 E0.02009
G1 X106.336 Y101.595 E0.01145
G1 X106.040 Y102.164 E0.02009
G1 X105.800 Y102.777 E0.02065
G1 X105.627 Y103.413 E0.02065
G1 X105.522 Y104.063 E0.02065
G1 X105.487 Y104.721 E0.02065
G1 X105.522 Y105.378 E0.02065
G1 X105.627 Y106.029 E0.02065
G1 X105.800 Y106.664 E0.02065
G1 X106.034 Y107.261 E0.02009
G1 X106.193 Y107.589 E0.01145
G1 X106.519 Y108.141 E0.02009
G1 X106.911 Y108.670 E0.02065
G1 X107.358 Y109.154 E0.02065
G1 X107.854 Y109.588 E0.02065
G1 X108.393 Y109.967 E0.02065
G1 X108.969 Y110.286 E0.02065
G1 X109.576 Y110.542 E0.02065
G1 X110.207 Y110.732 E0.02065
G1 X110.854 Y110.854 E0.02065
G1 X111.493 Y110.905 E0.02009
G1 X111.840 Y110.905 E0.01089
G1 X112.187 Y110.887 E0.01089
G1 X112.822 Y110.802 E0.02009
G1 X113.462 Y110.645 E0.02065
G1 X114.081 Y110.422 E0.02065
G1 X114.674 Y110.134 E0.02065
G1 X115.232 Y109.784 E0.02065
G1 X115.736 Y109.389 E0.02009
G1 X116.005 Y109.141 E0.01145
G1 X116.439 Y108.670 E0.02009
G1 X116.832 Y108.141 E0.02065
G1 X117.157 Y107.589 E0.02009
G1 X117.317 Y107.261 E0.01145
G1 X117.550 Y106.664 E0.02009
G1 X117.724 Y106.029 E0.02065
G1 X117.829 Y105.378 E0.02065
G1 X117.864 Y104.721 E0.02065
G1 X117.829 Y104.063 E0.02065
G1 X117.724 Y103.413 E0.02065
G1 X117.550 Y102.777 E0.02065
G1 X117.311 Y102.164 E0.02065
G1 X117.015 Y101.595 E0.02009
G1 X116.821 Y101.285 E0.01145
G1 X116.439 Y100.771 E0.02009
G1 X115.951 Y100.251 E0.02237
G1 X115.703 Y100.535 F10800.000
G1 F1200.000
G1 X115.264 Y100.150 E0.01830
G1 X114.757 Y99.795 E0.01939
G1 X114.216 Y99.495 E0.01939
G1 X113.647 Y99.255 E0.01939
G1 X113.067 Y99.080 E0.01899
G1 X112.739 Y99.009 E0.01050
G1 X112.139 Y98.929 E0.01899
G1 X111.521 Y98.912 E0.01939
G1 X110.904 Y98.961 E0.01939
G1 X110.296 Y99.076 E0.01939
G1 X109.717 Y99.251 E0.01899
G1 X109.405 Y99.373 E0.01050
G1 X108.871 Y99.632 E0.01859
G1 X108.583 Y99.802 E0.01050
G1 X108.087 Y100.150 E0.01899
G1 X107.622 Y100.558 E0.01939
G1 X107.202 Y101.012 E0.01939
G1 X106.841 Y101.498 E0.01899
G1 X106.663 Y101.782 E0.01050
G1 X106.384 Y102.320 E0.01899
G1 X106.159 Y102.896 E0.01939
G1 X105.996 Y103.492 E0.01939
G1 X105.898 Y104.103 E0.01939
G1 X105.865 Y104.721 E0.01939
G1 X105.898 Y105.338 E0.01939
G1 X105.996 Y105.949 E0.01939
G1 X106.159 Y106.546 E0.01939
G1 X106.379 Y107.110 E0.01899
G1 X106.526 Y107.411 E0.01050
G1 X106.833 Y107.933 E0.01899
G1 X107.202 Y108.429 E0.01939
G1 X107.622 Y108.884 E0.01939
G1 X108.087 Y109.291 E0.01939
G1 X108.593 Y109.646 E0.01939
G1 X109.134 Y109.946 E0.01939
G1 X109.704 Y110.187 E0.01939
G1 X110.296 Y110.365 E0.01939
G1 X110.904 Y110.480 E0.01939
G1 X111.508 Y110.528 E0.01899
G1 X111.830 Y110.528 E0.01010
G1 X112.152 Y110.511 E0.01010
G1 X112.752 Y110.431 E0.01899
G1 X113.353 Y110.284 E0.01939
G1 X113.935 Y110.074 E0.01939
G1 X114.491 Y109.803 E0.01939
G1 X115.015 Y109.475 E0.01939
G1 X115.492 Y109.101 E0.01899
G1 X115.738 Y108.874 E0.01050
G1 X116.149 Y108.429 E0.01899
G1 X116.517 Y107.933 E0.01939
G1 X116.825 Y107.411 E0.01899
G1 X116.971 Y107.110 E0.01050
G1 X117.192 Y106.546 E0.01899
G1 X117.355 Y105.949 E0.01939
G1 X117.453 Y105.338 E0.01939
G1 X117.486 Y104.721 E0.01939
G1 X117.453 Y104.103 E0.01939
G1 X117.355 Y103.492 E0.01939
G1 X117.192 Y102.896 E0.01939
G1 X116.967 Y102.320 E0.01939
G1 X116.687 Y101.782 E0.01899
G1 X116.510 Y101.498 E0.01050
G1 X116.149 Y101.012 E0.01899
G1 X115.746 Y100.576 E0.01861
G1 X115.469 Y100.832 F10800.000
G1 F1200.000
G1 X115.030 Y100.447 E0.01829
G1 X114.557 Y100.115 E0.01813
G1 X114.051 Y99.835 E0.01813
G1 X113.518 Y99.610 E0.01813
G1 X112.972 Y99.445 E0.01789
G1 X112.674 Y99.381 E0.00956
G1 X112.109 Y99.305 E0.01789
G1 X111.531 Y99.290 E0.01813
G1 X110.954 Y99.336 E0.01813
G1 X110.386 Y99.443 E0.01813
G1 X109.840 Y99.608 E0.01789
G1 X109.556 Y99.719 E0.00956
G1 X109.050 Y99.965 E0.01764
G1 X108.787 Y100.119 E0.00956
G1 X108.320 Y100.447 E0.01789
G1 X107.885 Y100.828 E0.01813
G1 X107.493 Y101.253 E0.01813
G1 X107.153 Y101.711 E0.01789
G1 X106.991 Y101.969 E0.00956
G1 X106.728 Y102.476 E0.01789
G1 X106.517 Y103.014 E0.01813
G1 X106.365 Y103.572 E0.01813
G1 X106.273 Y104.143 E0.01813
G1 X106.242 Y104.721 E0.01813
G1 X106.273 Y105.298 E0.01813
G1 X106.365 Y105.869 E0.01813
G1 X106.517 Y106.427 E0.01813
G1 X106.725 Y106.958 E0.01789
G1 X106.858 Y107.232 E0.00956
G1 X107.148 Y107.724 E0.01789
G1 X107.493 Y108.188 E0.01813
G1 X107.885 Y108.613 E0.01813
G1 X108.320 Y108.994 E0.01813
G1 X108.794 Y109.326 E0.01813
G1 X109.299 Y109.607 E0.01813
G1 X109.832 Y109.831 E0.01813
G1 X110.386 Y109.998 E0.01813
G1 X110.954 Y110.106 E0.01813
G1 X111.523 Y110.151 E0.01789
G1 X111.820 Y110.151 E0.00931
G1 X112.117 Y110.135 E0.00931
G1 X112.682 Y110.060 E0.01789
G1 X113.244 Y109.922 E0.01813
G1 X113.788 Y109.726 E0.01813
G1 X114.308 Y109.473 E0.01813
G1 X114.798 Y109.166 E0.01813
G1 X115.247 Y108.814 E0.01789
G1 X115.471 Y108.607 E0.00956
G1 X115.858 Y108.188 E0.01789
G1 X116.203 Y107.724 E0.01813
G1 X116.492 Y107.232 E0.01789
G1 X116.626 Y106.958 E0.00956
G1 X116.833 Y106.427 E0.01789
G1 X116.986 Y105.869 E0.01813
G1 X117.078 Y105.298 E0.01813
G1 X117.108 Y104.721 E0.01813
G1 X117.078 Y104.143 E0.01813
G1 X116.986 Y103.572 E0.01813
G1 X116.833 Y103.014 E0.01813
G1 X116.623 Y102.476 E0.01813
G1 X116.360 Y101.969 E0.01789
G1 X116.198 Y101.711 E0.00956
G1 X115.858 Y101.253 E0.01789
G1 X115.510 Y100.876 E0.01610
G1 X115.233 Y101.132 F10800.000
G1 F1200.000
G1 X114.797 Y100.744 E0.01827
G1 X114.357 Y100.435 E0.01687
G1 X113.886 Y100.174 E0.01687
G1 X113.390 Y99.965 E0.01687
G1 X112.878 Y99.810 E0.01678
G1 X112.609 Y99.752 E0.00861
G1 X112.079 Y99.681 E0.01678
G1 X111.541 Y99.667 E0.01687
G1 X111.004 Y99.710 E0.01687
G1 X110.476 Y99.810 E0.01687
G1 X109.963 Y99.964 E0.01678
G1 X109.707 Y100.064 E0.00861
G1 X109.228 Y100.297 E0.01670
G1 X108.992 Y100.437 E0.00861
G1 X108.554 Y100.744 E0.01678
G1 X108.149 Y101.099 E0.01687
G1 X107.784 Y101.494 E0.01687
G1 X107.464 Y101.924 E0.01678
G1 X107.319 Y102.157 E0.00861
G1 X107.072 Y102.632 E0.01678
G1 X106.876 Y103.133 E0.01687
